Gurmukhi/0A70.svg

<svg enable-background="new 0 0 336 592" viewBox="0 0 336 592" xmlns="http://www.w3.org/2000/svg"><path d="m207.538574 142.663345c-3.965713-.469772-7.424194.220642-10.757843 1.220063-13.312881 3.991211-18.922073 18.274932-12.243225 31.166793 1.732651 3.344422 3.862976 6.482819 5.821823 9.734436-6.821167 3.25206-14.556732 1.78299-18.945175-3.508071-13.044281-15.727295-11.578339-44.843293 13.829361-55.376526 14.417236-5.976929 29.072891-5.683548 42.961197 1.663505 21.395706 11.318535 23.912872 38.976067 7.75058 56.937096-2.08226 2.314026-10.574677 2.4561-15.736801.544144-.452317-2.283555 1.370788-3.571747 2.408294-5.16504 3.426361-5.261856 5.795655-10.93724 5.971222-17.242874.309403-11.111328-6.914856-17.955734-21.059433-19.973526z"/><path d="m231.511475 265.673553c3.394561-4.20581 7.329239-5.216278 11.622787-2.597747 3.39592 2.071106 4.889511 5.326507 3.636261 9.388855-1.500778 4.864715-6.218414 7.310485-11.026764 5.77008-4.793197-1.535553-6.529342-6.320038-4.232284-12.561188z"/><path d="m109.736061 276.243713c-3.477966-5.175384-3.046814-10.092773.845116-12.929351 3.639045-2.652283 8.628494-1.992829 11.593323 1.532226 2.693992 3.203064 2.628616 7.626465-.161202 10.904938-2.903862 3.412475-7.072754 3.679077-12.277237.492187z"/><path d="m104.2603 289.292297c3.882362-2.998657 7.601181-3.254333 11.256881-.520782 3.013916 2.253662 3.53389 5.476684 2.761086 8.935791-.825707 3.695862-3.482689 5.534393-7.007263 6.1203-3.464432.575867-6.167214-.977539-8.087174-3.742218-2.535316-3.650696-1.798591-7.184906 1.07647-10.793091z"/><path d="m184.685913 232.111679c-4.065414 5.360062-9.013657 6.365219-12.939804 2.945084-3.912765-3.408432-4.091797-9.370346-.38443-12.8013 3.621597-3.351532 9.294144-2.893586 12.393112.961624 2.115906 2.632278 1.808411 5.551254.931122 8.894592z"/><path d="m247.798141 303.012756c-4.922149 1.781281-8.694915.616028-11.08554-3.539795-2.020188-3.511871-1.593354-7.189392 1.359543-10.07669 2.907012-2.842438 6.457397-3.388367 10.114212-1.415711 5.583709 3.012146 5.538803 10.063233-.388215 15.032196z"/><path d="m225.636261 334.588867c5.736099 1.774597 8.291672 5.392334 7.242493 9.756439-1.116745 4.645264-4.951645 7.436798-9.481476 6.901856-3.970856-.468964-7.579239-4.621674-7.486481-8.615875.110916-4.776673 3.494949-7.700043 9.725464-8.04242z"/><path d="m216.976746 244.251282c3.887085-4.79422 7.835815-5.952362 11.830642-3.469147 3.625931 2.253906 5.200486 5.479172 3.690384 9.793121-1.565445 4.472062-4.86943 6.16742-9.345215 5.68573-5.393707-.580505-7.98265-5.458175-6.175811-12.009704z"/><path d="m108.208679 316.473267c2.867478-3.916993 6.294777-5.42511 10.586968-3.667481 3.561737 1.458527 5.507675 4.378967 5.320358 8.183533-.198196 4.025543-2.527802 6.742218-6.474518 7.860168-3.184898.9021-5.879883-.113006-8.119743-2.411804-2.76107-2.833679-3.029213-6.100738-1.313065-9.964416z"/><path d="m245.94519 316.375061c2.37938 4.792297 1.077561 8.44696-2.663574 11.216583-3.352936 2.482209-6.89537 2.083283-10.045746-.51596-3.37828-2.787354-3.908218-6.327485-2.18721-10.278717 2.241654-5.146637 11.191666-6.854035 14.89653-.421906z"/><path d="m121.616417 345.261841c-.858475-4.785248.425583-8.399903 4.694115-10.116455 3.372589-1.356293 6.874954-1.147217 9.544906 1.887878 2.226929 2.531403 3.112915 5.393799 1.802933 8.703095-1.357239 3.42865-3.893326 5.252105-7.52533 5.506469-4.216323.295349-6.800094-1.957916-8.516624-5.980987z"/><path d="m195.549591 351.789307c3.731583-4.038941 7.82045-4.311646 11.834824-1.59906 3.599502 2.43222 4.37973 6.210235 2.63385 10.119262-1.752869 3.924652-5.106461 5.52713-9.352646 4.926453-5.766861-.815857-8.175812-6.82431-5.116028-13.446655z"/><path d="m193.757294 233.998642c.724533-4.741562 2.674026-7.92807 7.529342-8.321289 4.057999-.328659 7.237336 1.072174 8.889191 4.961807 1.891296 4.453446-.655807 9.843216-5.231873 11.341767-5.103714 1.67131-9.381881-1.226639-11.18666-7.982285z"/><path d="m169.922684 366.690399c-1.993164-3.84967-1.582657-7.19577.974212-10.067596 2.10962-2.369416 4.937088-3.513459 8.117813-2.576325 3.388627.998474 5.930939 2.972351 6.300339 6.865143.382447 4.030609-.80014 7.299561-4.673843 9.037781-4.232575 1.8992-7.766922.800873-10.718521-3.259003z"/><path d="m121.662476 245.795914c2.845855-5.658097 6.704681-7.449311 11.298156-5.589279 3.787415 1.533615 6.026261 5.894256 5.004166 9.746627-1.185974 4.470017-5.267746 7.064591-9.914993 6.302506-4.360962-.71518-6.84478-4.59108-6.387329-10.459854z"/><path d="m157.883087 239.904648c-6.890365 4.132004-13.269195 1.983047-14.152634-4.447693-.544464-3.963303.4879-7.419663 4.439484-9.067917 3.612427-1.50676 7.220245-1.273117 9.989517 1.938889 3.194321 3.705032 2.903061 7.525283-.276367 11.576721z"/><path d="m144.50853 360.989929c-1.606263-6.991119.323578-11.168884 5.253341-12.200409 4.456879-.932617 8.870499 1.188782 10.107422 5.186798 1.254685 4.055359.139054 7.595673-3.415863 10.05597-3.67392 2.542633-7.961639 1.483703-11.9449-3.042359z"/></svg>

<svg version="1.1" id="Layer_1" xmlns="http://www.w3.org/2000/svg" xmlns:xlink="http://www.w3.org/1999/xlink" x="0px" y="0px"
	 width="100%" viewBox="0 0 336 592" enable-background="new 0 0 336 592" xml:space="preserve">
<path fill="#000000" opacity="1.000000" stroke="none" 
	d="
M207.538574,142.663345 
	C203.572861,142.193573 200.114380,142.883987 196.780731,143.883408 
	C183.467850,147.874619 177.858658,162.158340 184.537506,175.050201 
	C186.270157,178.394623 188.400482,181.533020 190.359329,184.784637 
	C183.538162,188.036697 175.802597,186.567627 171.414154,181.276566 
	C158.369873,165.549271 159.835815,136.433273 185.243515,125.900040 
	C199.660751,119.923111 214.316406,120.216492 228.204712,127.563545 
	C249.600418,138.882080 252.117584,166.539612 235.955292,184.500641 
	C233.873032,186.814667 225.380615,186.956741 220.218491,185.044785 
	C219.766174,182.761230 221.589279,181.473038 222.626785,179.879745 
	C226.053146,174.617889 228.422440,168.942505 228.598007,162.636871 
	C228.907410,151.525543 221.683151,144.681137 207.538574,142.663345 
z"/>
<path fill="#000000" opacity="1.000000" stroke="none" 
	d="
M231.511475,265.673553 
	C234.906036,261.467743 238.840714,260.457275 243.134262,263.075806 
	C246.530182,265.146912 248.023773,268.402313 246.770523,272.464661 
	C245.269745,277.329376 240.552109,279.775146 235.743759,278.234741 
	C230.950562,276.699188 229.214417,271.914703 231.511475,265.673553 
z"/>
<path fill="#000000" opacity="1.000000" stroke="none" 
	d="
M109.736061,276.243713 
	C106.258095,271.068329 106.689247,266.150940 110.581177,263.314362 
	C114.220222,260.662079 119.209671,261.321533 122.174500,264.846588 
	C124.868492,268.049652 124.803116,272.473053 122.013298,275.751526 
	C119.109436,279.164001 114.940544,279.430603 109.736061,276.243713 
z"/>
<path fill="#000000" opacity="1.000000" stroke="none" 
	d="
M104.260300,289.292297 
	C108.142662,286.293640 111.861481,286.037964 115.517181,288.771515 
	C118.531097,291.025177 119.051071,294.248199 118.278267,297.707306 
	C117.452560,301.403168 114.795578,303.241699 111.271004,303.827606 
	C107.806572,304.403473 105.103790,302.850067 103.183830,300.085388 
	C100.648514,296.434692 101.385239,292.900482 104.260300,289.292297 
z"/>
<path fill="#000000" opacity="1.000000" stroke="none" 
	d="
M184.685913,232.111679 
	C180.620499,237.471741 175.672256,238.476898 171.746109,235.056763 
	C167.833344,231.648331 167.654312,225.686417 171.361679,222.255463 
	C174.983276,218.903931 180.655823,219.361877 183.754791,223.217087 
	C185.870697,225.849365 185.563202,228.768341 184.685913,232.111679 
z"/>
<path fill="#000000" opacity="1.000000" stroke="none" 
	d="
M247.798141,303.012756 
	C242.875992,304.794037 239.103226,303.628784 236.712601,299.472961 
	C234.692413,295.961090 235.119247,292.283569 238.072144,289.396271 
	C240.979156,286.553833 244.529541,286.007904 248.186356,287.980560 
	C253.770065,290.992706 253.725159,298.043793 247.798141,303.012756 
z"/>
<path fill="#000000" opacity="1.000000" stroke="none" 
	d="
M225.636261,334.588867 
	C231.372360,336.363464 233.927933,339.981201 232.878754,344.345306 
	C231.762009,348.990570 227.927109,351.782104 223.397278,351.247162 
	C219.426422,350.778198 215.818039,346.625488 215.910797,342.631287 
	C216.021713,337.854614 219.405746,334.931244 225.636261,334.588867 
z"/>
<path fill="#000000" opacity="1.000000" stroke="none" 
	d="
M216.976746,244.251282 
	C220.863831,239.457062 224.812561,238.298920 228.807388,240.782135 
	C232.433319,243.036041 234.007874,246.261307 232.497772,250.575256 
	C230.932327,255.047318 227.628342,256.742676 223.152557,256.260986 
	C217.758850,255.680481 215.169907,250.802811 216.976746,244.251282 
z"/>
<path fill="#000000" opacity="1.000000" stroke="none" 
	d="
M108.208679,316.473267 
	C111.076157,312.556274 114.503456,311.048157 118.795647,312.805786 
	C122.357384,314.264313 124.303322,317.184753 124.116005,320.989319 
	C123.917809,325.014862 121.588203,327.731537 117.641487,328.849487 
	C114.456589,329.751587 111.761604,328.736481 109.521744,326.437683 
	C106.760674,323.604004 106.492531,320.336945 108.208679,316.473267 
z"/>
<path fill="#000000" opacity="1.000000" stroke="none" 
	d="
M245.945190,316.375061 
	C248.324570,321.167358 247.022751,324.822021 243.281616,327.591644 
	C239.928680,330.073853 236.386246,329.674927 233.235870,327.075684 
	C229.857590,324.288330 229.327652,320.748199 231.048660,316.796967 
	C233.290314,311.650330 242.240326,309.942932 245.945190,316.375061 
z"/>
<path fill="#000000" opacity="1.000000" stroke="none" 
	d="
M121.616417,345.261841 
	C120.757942,340.476593 122.042000,336.861938 126.310532,335.145386 
	C129.683121,333.789093 133.185486,333.998169 135.855438,337.033264 
	C138.082367,339.564667 138.968353,342.427063 137.658371,345.736359 
	C136.301132,349.165009 133.765045,350.988464 130.133041,351.242828 
	C125.916718,351.538177 123.332947,349.284912 121.616417,345.261841 
z"/>
<path fill="#000000" opacity="1.000000" stroke="none" 
	d="
M195.549591,351.789307 
	C199.281174,347.750366 203.370041,347.477661 207.384415,350.190247 
	C210.983917,352.622467 211.764145,356.400482 210.018265,360.309509 
	C208.265396,364.234161 204.911804,365.836639 200.665619,365.235962 
	C194.898758,364.420105 192.489807,358.411652 195.549591,351.789307 
z"/>
<path fill="#000000" opacity="1.000000" stroke="none" 
	d="
M193.757294,233.998642 
	C194.481827,229.257080 196.431320,226.070572 201.286636,225.677353 
	C205.344635,225.348694 208.523972,226.749527 210.175827,230.639160 
	C212.067123,235.092606 209.520020,240.482376 204.943954,241.980927 
	C199.840240,243.652237 195.562073,240.754288 193.757294,233.998642 
z"/>
<path fill="#000000" opacity="1.000000" stroke="none" 
	d="
M169.922684,366.690399 
	C167.929520,362.840729 168.340027,359.494629 170.896896,356.622803 
	C173.006516,354.253387 175.833984,353.109344 179.014709,354.046478 
	C182.403336,355.044952 184.945648,357.018829 185.315048,360.911621 
	C185.697495,364.942230 184.514908,368.211182 180.641205,369.949402 
	C176.408630,371.848602 172.874283,370.750275 169.922684,366.690399 
z"/>
<path fill="#000000" opacity="1.000000" stroke="none" 
	d="
M121.662476,245.795914 
	C124.508331,240.137817 128.367157,238.346603 132.960632,240.206635 
	C136.748047,241.740250 138.986893,246.100891 137.964798,249.953262 
	C136.778824,254.423279 132.697052,257.017853 128.049805,256.255768 
	C123.688843,255.540588 121.205025,251.664688 121.662476,245.795914 
z"/>
<path fill="#000000" opacity="1.000000" stroke="none" 
	d="
M157.883087,239.904648 
	C150.992722,244.036652 144.613892,241.887695 143.730453,235.456955 
	C143.185989,231.493652 144.218353,228.037292 148.169937,226.389038 
	C151.782364,224.882278 155.390182,225.115921 158.159454,228.327927 
	C161.353775,232.032959 161.062515,235.853210 157.883087,239.904648 
z"/>
<path fill="#000000" opacity="1.000000" stroke="none" 
	d="
M144.508530,360.989929 
	C142.902267,353.998810 144.832108,349.821045 149.761871,348.789520 
	C154.218750,347.856903 158.632370,349.978302 159.869293,353.976318 
	C161.123978,358.031677 160.008347,361.571991 156.453430,364.032288 
	C152.779510,366.574921 148.491791,365.515991 144.508530,360.989929 
z"/>
</svg>
